assets/icons/bird.svg

<svg width="70" height="46" viewBox="0 0 70 46" fill="none" xmlns="http://www.w3.org/2000/svg">
<path d="M60.5773 23C60.5773 35.7025 49.5778 46 36.0091 46C22.4405 46 5.16834 31.8864 5.16821 23C5.16809 14.1136 22.4405 0 36.0091 0C49.5778 0 60.5773 10.2975 60.5773 23Z" fill="#FF4E27"/>
<g style="mix-blend-mode:multiply">
<path d="M60.0675 27.6838C55.3417 35.5075 46.4965 40.7729 36.3643 40.7729C24.9722 40.7729 11.2351 31.65 5.17025 22.833C5.16885 22.8889 5.16821 22.9446 5.16821 23.0001C5.16834 31.8865 22.4405 46.0001 36.0091 46.0001C47.8634 46.0001 57.7567 38.1404 60.0675 27.6838Z" fill="black" fill-opacity="0.2"/>
</g>
<path d="M43.9654 1.23291C53.6293 4.32786 60.5774 12.9044 60.5774 23.0001C60.5774 24.539 60.4159 26.0427 60.108 27.497C58.0886 28.4606 55.8279 29.0001 53.4412 29.0001C44.8807 29.0001 37.9412 22.0605 37.9412 13.5001C37.9412 8.50839 40.3008 4.06782 43.9654 1.23291Z" fill="white"/>
<path fill-rule="evenodd" clip-rule="evenodd" d="M51.9746 18.7076C53.3423 18.2155 53.9523 16.4306 53.3371 14.7211C52.722 13.0115 51.1146 12.0245 49.7469 12.5167C48.3793 13.0088 47.7693 14.7936 48.3844 16.5032C48.9996 18.2128 50.607 19.1997 51.9746 18.7076ZM51.3674 15.2064C51.7821 15.0572 51.9671 14.516 51.7806 13.9976C51.5941 13.4793 51.1067 13.18 50.692 13.3292C50.2773 13.4785 50.0923 14.0196 50.2788 14.538C50.4654 15.0564 50.9528 15.3556 51.3674 15.2064Z" fill="black"/>
<path d="M53.2594 20.9092C48.6402 20.9092 44.8958 24.6537 44.8958 29.2728C44.8958 33.8919 48.6402 37.6365 53.2594 37.6365H62.1458C64.1666 37.6365 65.8048 35.9982 65.8048 33.9774C65.8048 31.9565 64.1666 30.3183 62.1458 30.3183H59.5321H65.2821C67.8804 30.3183 69.9867 28.212 69.9867 25.6137C69.9867 23.0155 67.8804 20.9092 65.2821 20.9092H53.2594Z" fill="#FFBF32"/>
<path fill-rule="evenodd" clip-rule="evenodd" d="M51.4412 30.0001C51.4412 29.7239 51.6651 29.5001 51.9412 29.5001H61.9412C62.2174 29.5001 62.4412 29.7239 62.4412 30.0001C62.4412 30.2762 62.2174 30.5001 61.9412 30.5001H51.9412C51.6651 30.5001 51.4412 30.2762 51.4412 30.0001Z" fill="#CE8E00"/>
<path d="M31.3631 25.0906C31.3957 30.287 24.4013 34.5436 15.7406 34.5979C7.07996 34.6522 0.032696 30.4837 0.000113375 25.2873C-0.0324692 20.0909 6.96197 15.8344 15.6226 15.7801C24.2833 15.7258 31.3305 19.8942 31.3631 25.0906Z" fill="white"/>
<path d="M31.1986 23.7588C30.2617 28.416 23.9843 32.4764 16.0445 33.2299C10.809 33.7268 6.013 32.6755 2.83827 30.6408C5.68665 33.0637 10.4078 34.6313 15.7406 34.5979C24.4013 34.5436 31.3957 30.287 31.3631 25.0906C31.3603 24.6382 31.3043 24.1936 31.1986 23.7588Z" fill="black" fill-opacity="0.15"/>
</svg>

<svg xmlns="http://www.w3.org/2000/svg" width="70" height="46" fill="none" viewBox="0 0 70 46">
  <path fill="#ff4e27" d="M60.577 23c0 12.703-11 23-24.568 23S5.17 31.886 5.17 23 22.44 0 36.008 0s24.568 10.298 24.568 23"/>
  <path fill="#000" fill-opacity=".2" d="M60.068 27.684c-4.726 7.823-13.571 13.089-23.704 13.089-11.392 0-25.129-9.123-31.194-17.94L5.168 23c0 8.887 17.272 23 30.841 23 11.854 0 21.748-7.86 24.059-18.316" style="mix-blend-mode:multiply"/>
  <path fill="#fff" d="M43.965 1.233C53.63 4.328 60.577 12.904 60.577 23c0 1.539-.161 3.043-.469 4.497A15.4 15.4 0 0 1 53.441 29c-8.56 0-15.5-6.94-15.5-15.5 0-4.992 2.36-9.432 6.024-12.267"/>
  <path fill="#000" fill-rule="evenodd" d="M51.975 18.708c1.367-.492 1.977-2.277 1.362-3.987s-2.222-2.697-3.59-2.204-1.978 2.277-1.363 3.986c.616 1.71 2.223 2.697 3.59 2.205m-.608-3.502c.415-.149.6-.69.414-1.208-.187-.519-.674-.818-1.089-.669-.415.15-.6.69-.413 1.209.186.518.674.818 1.088.668" clip-rule="evenodd"/>
  <path fill="#ffbf32" d="M53.26 20.91a8.364 8.364 0 1 0 0 16.726h8.886a3.66 3.66 0 0 0 0-7.318h-2.614 5.75a4.705 4.705 0 1 0 0-9.409z"/>
  <path fill="#ce8e00" fill-rule="evenodd" d="M51.441 30a.5.5 0 0 1 .5-.5h10a.5.5 0 1 1 0 1h-10a.5.5 0 0 1-.5-.5" clip-rule="evenodd"/>
  <path fill="#fff" d="M31.363 25.09c.033 5.197-6.962 9.454-15.622 9.508S.033 30.484 0 25.288s6.961-9.454 15.622-9.508 15.708 4.114 15.74 9.31"/>
  <path fill="#000" fill-opacity=".15" d="M31.199 23.759c-.937 4.657-7.215 8.717-15.155 9.47-5.235.498-10.031-.553-13.206-2.588 2.849 2.423 7.57 3.99 12.903 3.957 8.66-.054 15.655-4.311 15.622-9.507a5.8 5.8 0 0 0-.164-1.332"/>
</svg>
